src/assets/Phone.svg

<!DOCTYPE svg PUBLIC "-//W3C//DTD SVG 1.1//EN" "http://www.w3.org/Graphics/SVG/1.1/DTD/svg11.dtd">
<!-- Uploaded to: SVG Repo, www.svgrepo.com, Transformed by: SVG Repo Mixer Tools -->
<svg width="800px" height="800px" viewBox="0 0 24 24" fill="none" xmlns="http://www.w3.org/2000/svg">
<g id="SVGRepo_bgCarrier" stroke-width="0"/>
<g id="SVGRepo_tracerCarrier" stroke-linecap="round" stroke-linejoin="round"/>
<g id="SVGRepo_iconCarrier"> <path fill-rule="evenodd" clip-rule="evenodd" d="M6.00745 3.40686C7.68752 1.72679 10.5227 1.85451 11.6925 3.95063L12.3415 5.11356C13.1054 6.48238 12.7799 8.20946 11.6616 9.34143C11.6467 9.36184 11.5677 9.47677 11.5579 9.67758C11.5454 9.93391 11.6364 10.5267 12.5548 11.4451C13.4729 12.3632 14.0656 12.4545 14.3221 12.442C14.5231 12.4322 14.6381 12.3533 14.6585 12.3383C15.7905 11.2201 17.5176 10.8945 18.8864 11.6584L20.0493 12.3075C22.1454 13.4773 22.2731 16.3124 20.5931 17.9925C19.6944 18.8911 18.4995 19.6896 17.0953 19.7429C15.0144 19.8218 11.5591 19.2844 8.13735 15.8626C4.71556 12.4408 4.17818 8.98556 4.25706 6.90463C4.3103 5.50044 5.10879 4.30552 6.00745 3.40686ZM10.3827 4.68163C9.78363 3.60828 8.17394 3.36169 7.06811 4.46752C6.29276 5.24287 5.7887 6.09868 5.75599 6.96146C5.6902 8.6968 6.11864 11.7226 9.19801 14.8019C12.2774 17.8813 15.3031 18.3097 17.0385 18.2439C17.9013 18.2112 18.7571 17.7072 19.5324 16.9318C20.6382 15.826 20.3916 14.2163 19.3183 13.6173L18.1554 12.9683C17.432 12.5645 16.4158 12.7023 15.7025 13.4156L15.7023 13.4158C15.6322 13.4858 15.1864 13.9018 14.395 13.9403C13.5847 13.9797 12.604 13.6156 11.4942 12.5058C10.384 11.3956 10.02 10.4146 10.0597 9.60423C10.0985 8.81271 10.5147 8.36711 10.5843 8.29746L10.5844 8.29743C11.2977 7.58411 11.4354 6.56797 11.0317 5.84456L10.3827 4.68163Z" fill="#34d399"/> </g>
</svg>

<svg width="800" height="800" viewBox="0 0 24 24" fill="none" xmlns="http://www.w3.org/2000/svg"><path fill-rule="evenodd" clip-rule="evenodd" d="M6.007 3.407c1.68-1.68 4.516-1.552 5.686.544l.649 1.163c.763 1.368.438 3.095-.68 4.227a.63.63 0 0 0-.104.337c-.013.256.078.849.997 1.767.918.918 1.51 1.01 1.767.997a.63.63 0 0 0 .337-.104c1.131-1.118 2.859-1.443 4.227-.68l1.163.65c2.096 1.17 2.224 4.004.544 5.684-.899.9-2.093 1.698-3.498 1.75-2.08.08-5.536-.458-8.958-3.88-3.421-3.421-3.959-6.876-3.88-8.957.053-1.405.852-2.6 1.75-3.498Zm4.376 1.275c-.6-1.074-2.21-1.32-3.315-.214-.775.775-1.28 1.63-1.312 2.493-.066 1.736.363 4.762 3.442 7.84 3.08 3.08 6.105 3.509 7.84 3.443.863-.033 1.72-.537 2.494-1.312 1.106-1.106.86-2.716-.214-3.315l-1.163-.649c-.723-.403-1.74-.266-2.453.448-.07.07-.516.486-1.307.524-.81.04-1.791-.324-2.9-1.434-1.111-1.11-1.475-2.091-1.435-2.902.038-.791.455-1.237.524-1.307.714-.713.851-1.729.448-2.452l-.65-1.163Z" fill="#34d399"/></svg>
